ADAMAKER/website/wwwroot/library/media/icon-facebook.svg

<svg width="14" height="26" viewBox="0 0 14 26" fill="none" xmlns="http://www.w3.org/2000/svg">
<path d="M4.07099 25.7795V13.7563H0.707031V9.42741H4.07099V5.72995C4.07099 2.82445 6.05809 0.15625 10.6368 0.15625C12.4906 0.15625 13.8615 0.32421 13.8615 0.32421L13.7535 4.36669C13.7535 4.36669 12.3554 4.35383 10.8298 4.35383C9.17869 4.35383 8.91415 5.07294 8.91415 6.2665V9.42741H13.8847L13.6684 13.7563H8.91415V25.7795H4.07099Z" fill="#F24139"/>
</svg>

<?xml version="1.0" encoding="UTF-8"?>
<svg id="Camada_1" xmlns="http://www.w3.org/2000/svg" version="1.1" viewBox="0 0 14 26">
  <!-- Generator: Adobe Illustrator 29.1.0, SVG Export Plug-In . SVG Version: 2.1.0 Build 142)  -->
  <defs>
    <style>
      .st0 {
        fill: #141414;
      }
    </style>
  </defs>
  <path class="st0" d="M4.1,25.8v-12H.7v-4.3h3.4v-3.7C4.1,2.8,6.1.2,10.6.2s3.2.2,3.2.2v4c-.1,0-1.5,0-3,0s-1.9.7-1.9,1.9v3.2h5l-.2,4.3h-4.8v12h-4.8Z"/>
</svg>
